public/category-5.svg.svg

<svg width="31" height="31" viewBox="0 0 31 31" fill="none" xmlns="http://www.w3.org/2000/svg">
<g clip-path="url(#clip0_6511_584)">
<g clip-path="url(#clip1_6511_584)">
<g clip-path="url(#clip2_6511_584)">
<path d="M22.5625 20.4565H15.8125C14.5699 20.4565 13.5625 21.4639 13.5625 22.7065V27.2065C13.5625 28.4492 14.5699 29.4565 15.8125 29.4565H22.5625C23.8051 29.4565 24.8125 28.4492 24.8125 27.2065V22.7065C24.8125 21.4639 23.8051 20.4565 22.5625 20.4565Z" fill="#FDC040"/>
<path d="M2.6875 3.01904L3.0625 3.95654L4.1875 3.58154L6.4375 3.39404L10 3.20654L13.75 3.39404L20.125 3.95654L20.6875 3.39404L21.0625 2.45654C21.125 2.20654 21.25 1.66904 21.25 1.51904C21.25 1.36904 20.75 1.33154 20.5 1.33154L19.9375 1.51904L19.375 1.70654H18.25C18.0625 1.51904 17.65 1.14404 17.5 1.14404C17.35 1.14404 17.0625 0.894042 16.9375 0.769043H16L15.4375 1.33154L14.6875 1.70654H13.9375L13 1.14404L12.0625 0.581543L11.125 0.769043L10.5625 1.33154L9.625 1.70654L8.6875 1.51904C8.5 1.45654 8.0875 1.33154 7.9375 1.33154C7.7875 1.33154 7.62501 0.956543 7.5625 0.769043H7L6.25 0.956543C6.12501 1.08154 5.8375 1.33154 5.6875 1.33154C5.5 1.33154 5.125 1.51904 5.125 1.70654C5.125 1.89404 4.5625 1.70654 4.375 1.70654C4.1875 1.70654 4 1.70654 3.8125 1.51904C3.6625 1.36904 3.375 1.33154 3.25 1.33154H2.5L2.3125 2.08154L2.6875 3.01904Z" fill="#FDC040"/>
<path d="M11.7396 19.469C13.7278 19.469 15.6017 18.888 17.0165 17.8328C18.4699 16.7488 19.2702 15.2955 19.2702 13.7407C19.2702 12.1858 18.4699 10.7325 17.0165 9.6486C15.6017 8.59343 13.7278 8.01233 11.7396 8.01233C9.75141 8.01233 7.87742 8.59343 6.46266 9.6486C5.00938 10.7325 4.20898 12.1858 4.20898 13.7407C4.20898 15.2955 5.00935 16.7488 6.46266 17.8328C7.87742 18.888 9.75141 19.469 11.7396 19.469ZM5.08791 13.7407C5.08791 11.0667 8.07186 8.89125 11.7396 8.89125C15.4073 8.89125 18.3913 11.0667 18.3913 13.7407C18.3913 16.4147 15.4073 18.5901 11.7396 18.5901C8.07186 18.5901 5.08791 16.4147 5.08791 13.7407Z" fill="#3BB77E"/>
<path d="M28.2579 25.9714C28.6239 25.6873 28.823 25.3368 28.823 24.9536C28.823 24.5705 28.6239 24.22 28.2579 23.9359C28.5782 23.7138 28.7956 23.4569 28.9073 23.1675C29.0046 22.9153 29.0667 22.509 28.8095 22.0056C28.609 21.6134 28.2916 21.3589 27.8913 21.2696C27.2501 21.1265 26.401 21.4153 25.3628 22.1278C24.8724 20.7923 23.6233 19.8361 22.1264 19.7683C21.8124 19.7541 21.4975 19.743 21.1824 19.7332C21.4852 14.5022 21.3891 9.20257 20.8957 3.96941C21.0581 3.70776 21.3689 3.12849 21.564 2.26504C21.6815 1.7453 21.4603 1.23406 21.0007 0.962592C20.548 0.69534 20.0023 0.747492 19.6105 1.09554C19.4138 1.27028 19.2279 1.37856 18.9095 1.37856C18.4913 1.37856 18.3046 1.19545 18.0219 0.918297C17.6985 0.601122 17.2961 0.206543 16.519 0.206543C15.7419 0.206543 15.3395 0.601122 15.0162 0.918177C14.7335 1.19533 14.5468 1.37844 14.1287 1.37844C13.7106 1.37844 13.5239 1.19533 13.2412 0.918177C12.9178 0.601122 12.5154 0.206543 11.7383 0.206543C10.9612 0.206543 10.5589 0.601122 10.2356 0.918177C9.95295 1.19533 9.7662 1.37844 9.34811 1.37844C8.93006 1.37844 8.74338 1.19533 8.46063 0.918177C8.13738 0.601122 7.73501 0.206543 6.95793 0.206543C6.1809 0.206543 5.7786 0.601122 5.45531 0.918177C5.17264 1.19533 4.98596 1.37844 4.56802 1.37844C4.24972 1.37844 4.06386 1.27016 3.86722 1.09549C3.47557 0.747492 2.93005 0.695284 2.47729 0.962415C2.01761 1.23377 1.79648 1.74495 1.9139 2.26469C2.10902 3.12849 2.41998 3.70788 2.58241 3.96944C2.50641 4.77521 2.43821 5.59691 2.38037 6.41684C2.36326 6.65894 2.54567 6.86909 2.78778 6.88612C3.03101 6.90299 3.24002 6.72078 3.25713 6.47864C3.31098 5.7154 3.37344 4.94999 3.44334 4.19816C8.94975 3.53514 14.5285 3.53514 20.0352 4.19816C20.5135 9.34957 20.6028 14.5643 20.3032 19.712C18.9141 19.6876 17.5198 19.7056 16.1388 19.7682C14.6418 19.8361 13.3927 20.7922 12.9023 22.1277C11.8641 21.4152 11.015 21.1263 10.3738 21.2695C9.97357 21.3588 9.6561 21.6133 9.45566 22.0056C9.19848 22.5089 9.26051 22.9152 9.35779 23.1674C9.43998 23.3805 9.58005 23.5758 9.7758 23.7528C7.67295 23.6934 5.54756 23.5364 3.44334 23.2828C2.97898 18.2822 2.87978 13.2181 3.14861 8.22573C3.16168 7.98337 2.97575 7.77629 2.73341 7.76328C2.48959 7.74993 2.28404 7.93616 2.27092 8.17848C1.99622 13.2794 2.1031 18.4538 2.58721 23.5612C2.42608 23.8191 2.1109 24.4012 1.91408 25.2729C1.79642 25.7928 2.01755 26.3042 2.47741 26.5757C2.92999 26.843 3.47575 26.7906 3.86722 26.4427C4.06415 26.268 4.25014 26.1597 4.56814 26.1597C4.98634 26.1597 5.17312 26.3428 5.45584 26.6201C5.77924 26.9371 6.18165 27.3316 6.95876 27.3316C7.73595 27.3316 8.13836 26.9371 8.46176 26.6201C8.74443 26.3428 8.9313 26.1597 9.34942 26.1597C9.49117 26.1597 9.60649 26.1813 9.70721 26.2197C9.54712 26.3791 9.42986 26.5526 9.35763 26.7398C9.26036 26.9921 9.1983 27.3984 9.45547 27.9018C9.65591 28.2939 9.97338 28.5484 10.3737 28.6378C10.4802 28.6616 10.5924 28.6734 10.7103 28.6734C11.3021 28.6734 12.0364 28.3731 12.9019 27.7791C13.3922 29.1149 14.6415 30.0712 16.1386 30.139C17.1319 30.184 18.1321 30.2065 19.1325 30.2065C20.1327 30.2065 21.1331 30.184 22.1263 30.139C23.6233 30.0711 24.8725 29.1149 25.3628 27.7791C26.2283 28.3731 26.9627 28.6734 27.5544 28.6734C27.6723 28.6734 27.7846 28.6615 27.8911 28.6377C28.2914 28.5484 28.6089 28.2939 28.8093 27.9016C29.0665 27.3983 29.0044 26.992 28.9071 26.7398C28.7957 26.4504 28.5782 26.1934 28.2579 25.9714ZM3.23311 3.33885C3.09793 3.0883 2.90444 2.66079 2.7712 2.07103C2.72286 1.85699 2.87609 1.74765 2.92414 1.71929C2.9822 1.68501 3.13361 1.61944 3.28355 1.75263C3.54811 1.98759 3.9332 2.25737 4.56802 2.25737C5.34502 2.25737 5.74736 1.86279 6.07069 1.54573C6.35329 1.26858 6.54004 1.08547 6.95797 1.08547C7.37599 1.08547 7.5627 1.26858 7.84541 1.54573C8.16862 1.86279 8.57103 2.25737 9.34811 2.25737C10.1252 2.25737 10.5276 1.86279 10.8509 1.54573C11.1336 1.26858 11.3203 1.08547 11.7383 1.08547C12.1564 1.08547 12.3432 1.26858 12.6258 1.54573C12.9492 1.86279 13.3516 2.25737 14.1287 2.25737C14.9058 2.25737 15.3082 1.86279 15.6315 1.54573C15.9141 1.26858 16.1009 1.08547 16.519 1.08547C16.9372 1.08547 17.1239 1.26858 17.4066 1.54573C17.73 1.86279 18.1324 2.25737 18.9096 2.25737C19.5444 2.25737 19.9296 1.98765 20.1942 1.75263C20.344 1.6195 20.4957 1.68495 20.5538 1.71935C20.6019 1.74776 20.7552 1.8571 20.7067 2.07121C20.5735 2.66114 20.3799 3.08871 20.2451 3.33879C14.599 2.65042 8.87854 2.65042 3.23311 3.33885ZM21.6006 29.2802C21.0088 29.3025 20.4153 29.3175 19.821 29.3237C20.0837 27.3959 20.5713 25.4497 21.274 23.531C21.3574 23.3031 21.2404 23.0507 21.0124 22.9672C20.7844 22.8838 20.5322 23.0009 20.4486 23.2288C19.7096 25.247 19.2006 27.2964 18.9334 29.3265C18.3427 29.3246 17.7523 29.3148 17.1634 29.2971C17.759 24.9655 19.3477 21.6355 19.8964 20.5842C20.4494 20.5906 21.0016 20.6047 21.5523 20.625C21.4252 20.8846 21.2756 21.203 21.1134 21.5735C21.0161 21.7958 21.1173 22.055 21.3397 22.1523C21.397 22.1775 21.4568 22.1893 21.5157 22.1893C21.685 22.1893 21.8463 22.091 21.9185 21.926C22.15 21.3972 22.354 20.9801 22.4995 20.6961C23.02 20.7983 23.4857 21.0453 23.8539 21.3939C23.1558 22.9568 22.0633 25.8209 21.6006 29.2802ZM7.84657 25.9923C7.56386 26.2695 7.377 26.4526 6.95887 26.4526C6.54071 26.4526 6.35392 26.2696 6.07125 25.9924C5.74781 25.6753 5.3454 25.2808 4.56825 25.2808C3.93402 25.2808 3.54881 25.5504 3.28373 25.7855C3.13384 25.9186 2.98244 25.8532 2.92443 25.8189C2.87626 25.7904 2.72298 25.681 2.7715 25.4666C2.9147 24.8323 3.12793 24.3853 3.26305 24.1451C5.33257 24.3967 7.42297 24.5583 9.49368 24.6246C9.45997 24.7309 9.44223 24.8408 9.44223 24.9537C9.44223 25.0677 9.46027 25.1788 9.49473 25.2862C9.44767 25.283 9.39963 25.2808 9.34965 25.2808C8.57238 25.2808 8.16997 25.6753 7.84657 25.9923ZM10.5653 27.78C10.4682 27.7583 10.3432 27.7071 10.2384 27.5018C10.1197 27.2695 10.1469 27.1362 10.1779 27.0561C10.2689 26.8203 10.6008 26.5836 11.1124 26.3897C11.2848 26.3244 11.3981 26.1585 11.3962 25.9741C11.3943 25.7898 11.2775 25.6263 11.1037 25.5646C10.566 25.3737 10.3212 25.1141 10.3212 24.9536C10.3212 24.7931 10.5661 24.5334 11.1037 24.3426C11.2775 24.2809 11.3943 24.1174 11.3962 23.933C11.3981 23.7487 11.2848 23.5827 11.1124 23.5175C10.6008 23.3236 10.2689 23.087 10.1779 22.8511C10.147 22.771 10.1197 22.6377 10.2384 22.4055C10.3432 22.2001 10.4682 22.1489 10.5653 22.1272C10.7723 22.081 11.3835 22.087 12.6943 23.0589C12.6904 23.103 12.6865 23.147 12.6842 23.1916C12.6225 24.3607 12.6225 25.5463 12.6842 26.7154C12.6865 26.76 12.6904 26.8041 12.6943 26.8481C11.3836 27.82 10.7726 27.8261 10.5653 27.78ZM13.5618 23.238C13.6363 21.8247 14.7613 20.7105 16.1785 20.6463C16.1931 20.6457 16.2077 20.6453 16.2222 20.6446C15.6192 21.8837 14.4933 24.489 13.8616 27.7825C13.6888 27.4469 13.5829 27.0702 13.5618 26.6694C13.5018 25.5309 13.5018 24.3764 13.5618 23.238ZM14.5961 28.6732C15.2478 24.6677 16.7157 21.5878 17.2234 20.6084C17.7857 20.592 18.3493 20.5827 18.9132 20.5809C18.2196 21.9908 16.8247 25.2131 16.2809 29.265C16.2468 29.2636 16.2126 29.2625 16.1785 29.261C15.5797 29.2339 15.0334 29.0187 14.5961 28.6732ZM24.7033 26.6693C24.6362 27.9428 23.7159 28.9731 22.4976 29.2114C22.9144 26.2621 23.7954 23.7739 24.4515 22.2235C24.5958 22.5337 24.6842 22.8759 24.7033 23.2379C24.7633 24.3764 24.7633 25.5309 24.7033 26.6693ZM28.0268 27.5017C27.9219 27.7071 27.7969 27.7583 27.6999 27.78C27.4928 27.8261 26.8816 27.8201 25.5709 26.8483C25.5748 26.8042 25.5787 26.7601 25.581 26.7156C25.6427 25.5464 25.6427 24.3608 25.581 23.1917C25.5787 23.1471 25.5748 23.1031 25.5709 23.059C26.8815 22.0872 27.4926 22.0811 27.6999 22.1274C27.7969 22.149 27.9219 22.2003 28.0268 22.4055C28.1455 22.6378 28.1182 22.7711 28.0872 22.8511C27.9963 23.087 27.6643 23.3236 27.1527 23.5175C26.9804 23.5828 26.8671 23.7487 26.8689 23.9331C26.8709 24.1174 26.9877 24.2809 27.1614 24.3426C27.6991 24.5335 27.944 24.7932 27.944 24.9536C27.944 25.1141 27.6991 25.3738 27.1614 25.5646C26.9877 25.6263 26.8709 25.7898 26.8689 25.9742C26.867 26.1585 26.9803 26.3245 27.1527 26.3898C27.6643 26.5836 27.9963 26.8203 28.0873 27.0562C28.1181 27.1362 28.1455 27.2695 28.0268 27.5017Z" fill="#3BB77E"/>
<path d="M8.79816 12.2902C10.7494 12.0311 12.7278 12.0311 14.6788 12.2902C14.6985 12.2928 14.718 12.2941 14.7373 12.2941C14.9542 12.2941 15.143 12.1335 15.1723 11.9125C15.2043 11.6719 15.0352 11.451 14.7946 11.419C12.7669 11.1497 10.7104 11.1497 8.68244 11.419C8.44184 11.451 8.27268 11.6719 8.30466 11.9125C8.33665 12.1531 8.55756 12.3221 8.79816 12.2902Z" fill="#3BB77E"/>
<path d="M15.1723 15.6834C15.1404 15.4428 14.9193 15.2738 14.6788 15.3056C12.7278 15.5648 10.7494 15.5648 8.79816 15.3056C8.55768 15.2737 8.33661 15.4428 8.30466 15.6834C8.27268 15.924 8.44184 16.1449 8.68244 16.1769C9.69636 16.3115 10.7174 16.3788 11.7385 16.3788C12.7596 16.3788 13.7806 16.3115 14.7945 16.1769C15.0352 16.1449 15.2043 15.924 15.1723 15.6834Z" fill="#3BB77E"/>
<path d="M16.3638 13.7979C16.3638 13.5552 16.1671 13.3584 15.9244 13.3584H7.5547C7.31196 13.3584 7.11523 13.5552 7.11523 13.7979C7.11523 14.0406 7.31196 14.2373 7.5547 14.2373H15.9244C16.1671 14.2373 16.3638 14.0406 16.3638 13.7979Z" fill="#3BB77E"/>
</g>
</g>
</g>
<defs>
<clipPath id="clip0_6511_584">
<rect width="30" height="30" fill="white" transform="translate(0.4375 0.206543)"/>
</clipPath>
<clipPath id="clip1_6511_584">
<rect width="30" height="30" fill="white" transform="translate(0.4375 0.206543)"/>
</clipPath>
<clipPath id="clip2_6511_584">
<rect width="30" height="30" fill="white" transform="translate(0.4375 0.206543)"/>
</clipPath>
</defs>
</svg>

<svg xmlns="http://www.w3.org/2000/svg" width="31" height="31" fill="none"><g clip-path="url(#a)"><g clip-path="url(#b)"><g clip-path="url(#c)"><path fill="#FDC040" d="M22.563 20.457h-6.75a2.25 2.25 0 0 0-2.25 2.25v4.5a2.25 2.25 0 0 0 2.25 2.25h6.75a2.25 2.25 0 0 0 2.25-2.25v-4.5a2.25 2.25 0 0 0-2.25-2.25M2.688 3.019l.374.938 1.126-.375 2.25-.188L10 3.207l3.75.187 6.375.563.563-.563.375-.937c.062-.25.187-.788.187-.938s-.5-.187-.75-.187l-.562.187-.563.188H18.25c-.187-.188-.6-.563-.75-.563s-.437-.25-.562-.375H16l-.562.563-.75.375h-.75L13 1.144l-.937-.562-.938.187-.562.563-.938.375-.937-.188c-.188-.062-.6-.187-.75-.187S7.625.957 7.563.769H7l-.75.188c-.125.125-.412.375-.562.375-.188 0-.563.187-.563.375 0 .187-.562 0-.75 0s-.375 0-.562-.188c-.15-.15-.438-.187-.563-.187H2.5l-.187.75z"/><path fill="#3BB77E" d="M11.74 19.469c1.988 0 3.862-.581 5.277-1.636 1.453-1.084 2.253-2.537 2.253-4.092s-.8-3.008-2.253-4.092c-1.415-1.056-3.29-1.637-5.277-1.637-1.989 0-3.863.581-5.277 1.637-1.454 1.084-2.254 2.537-2.254 4.092s.8 3.008 2.254 4.092c1.414 1.055 3.288 1.636 5.277 1.636m-6.652-5.728c0-2.674 2.984-4.85 6.652-4.85 3.667 0 6.651 2.176 6.651 4.85s-2.984 4.85-6.651 4.85c-3.668 0-6.652-2.176-6.652-4.85"/><path fill="#3BB77E" d="M28.258 25.971c.366-.284.565-.634.565-1.017 0-.384-.2-.734-.565-1.018q.481-.335.65-.768c.097-.253.159-.659-.099-1.162-.2-.393-.517-.647-.918-.736-.64-.143-1.49.145-2.528.858a3.61 3.61 0 0 0-3.237-2.36 67 67 0 0 0-.944-.035 104 104 0 0 0-.286-15.764c.162-.261.473-.84.668-1.704a1.19 1.19 0 0 0-.563-1.302 1.17 1.17 0 0 0-1.39.133c-.197.174-.383.283-.701.283-.419 0-.605-.184-.888-.46-.323-.318-.726-.712-1.503-.712s-1.18.394-1.503.711c-.283.277-.47.46-.887.46s-.605-.183-.888-.46c-.323-.317-.726-.711-1.503-.711s-1.18.394-1.502.711c-.283.277-.47.46-.888.46s-.605-.183-.887-.46C8.137.601 7.735.207 6.958.207S5.778.6 5.455.918c-.282.277-.469.46-.887.46-.318 0-.504-.108-.7-.283a1.17 1.17 0 0 0-1.39-.133c-.46.272-.682.783-.564 1.303.195.863.506 1.443.668 1.704-.076.806-.144 1.628-.202 2.448a.44.44 0 1 0 .877.062c.054-.764.116-1.529.186-2.28a69.5 69.5 0 0 1 16.592 0c.479 5.15.568 10.365.268 15.513a66 66 0 0 0-4.164.056 3.61 3.61 0 0 0-3.237 2.36c-1.038-.713-1.887-1.002-2.528-.858-.4.089-.718.343-.918.736-.258.503-.195.91-.098 1.161q.123.32.418.586a70 70 0 0 1-6.333-.47c-.464-5-.563-10.065-.294-15.057a.44.44 0 1 0-.878-.048c-.275 5.101-.168 10.276.316 15.383-.16.258-.476.84-.673 1.712-.118.52.104 1.031.563 1.303.453.267.999.215 1.39-.133.197-.175.383-.283.701-.283.418 0 .605.183.888.46.323.317.726.712 1.503.712s1.18-.395 1.503-.712c.282-.277.47-.46.887-.46.142 0 .257.021.358.06q-.24.24-.35.52c-.097.252-.159.658.098 1.162.2.392.518.646.919.736q.159.036.336.035c.592 0 1.326-.3 2.192-.894a3.61 3.61 0 0 0 3.237 2.36 66 66 0 0 0 5.987 0 3.61 3.61 0 0 0 3.237-2.36c.865.594 1.6.894 2.191.894q.177 0 .337-.035c.4-.09.718-.344.918-.736.258-.504.195-.91.098-1.162q-.168-.436-.65-.769M3.233 3.34a5 5 0 0 1-.462-1.268.316.316 0 0 1 .153-.352c.058-.034.21-.1.36.034.264.235.65.504 1.284.504.777 0 1.18-.394 1.503-.711.282-.277.469-.46.887-.46s.605.183.887.46c.324.317.726.711 1.503.711s1.18-.394 1.503-.711c.283-.277.47-.46.887-.46s.605.183.888.46c.323.317.726.711 1.503.711s1.18-.394 1.503-.711c.282-.277.469-.46.887-.46s.605.183.888.46c.323.317.725.711 1.503.711.634 0 1.02-.27 1.284-.504a.29.29 0 0 1 .36-.034.316.316 0 0 1 .153.352 5 5 0 0 1-.462 1.268 70.3 70.3 0 0 0-17.012 0M21.601 29.28q-.889.033-1.78.044a27.8 27.8 0 0 1 1.453-5.793.44.44 0 0 0-.825-.302 28.6 28.6 0 0 0-1.516 6.098 66 66 0 0 1-1.77-.03c.596-4.332 2.185-7.661 2.733-8.713q.83.01 1.656.041c-.127.26-.276.578-.439.948a.44.44 0 1 0 .806.353c.231-.529.435-.946.58-1.23.521.102.987.35 1.355.698-.698 1.563-1.79 4.427-2.253 7.886M7.847 25.992c-.283.277-.47.46-.888.46s-.605-.182-.888-.46c-.323-.317-.726-.711-1.503-.711-.634 0-1.02.27-1.284.505a.29.29 0 0 1-.36.033.316.316 0 0 1-.152-.352 5 5 0 0 1 .491-1.322c2.07.252 4.16.413 6.23.48a1.1 1.1 0 0 0 .002.661 2 2 0 0 0-.145-.005c-.778 0-1.18.394-1.503.711m2.718 1.788c-.097-.022-.222-.073-.327-.278-.118-.232-.091-.366-.06-.446.09-.236.423-.472.934-.666a.44.44 0 0 0-.008-.825c-.538-.191-.783-.45-.783-.611s.245-.42.783-.611a.44.44 0 0 0 .008-.826c-.511-.193-.843-.43-.934-.666-.031-.08-.058-.213.06-.445.105-.206.23-.257.327-.279.207-.046.819-.04 2.13.932q-.007.066-.01.133a34 34 0 0 0 0 3.523q.003.068.01.133c-1.311.972-1.922.978-2.13.932m2.997-4.542a2.73 2.73 0 0 1 2.617-2.592l.043-.001a29.5 29.5 0 0 0-2.36 7.137 2.7 2.7 0 0 1-.3-1.113 33 33 0 0 1 0-3.431m1.034 5.435c.652-4.005 2.12-7.085 2.627-8.065a65 65 0 0 1 1.69-.027 29.1 29.1 0 0 0-2.632 8.684l-.102-.004a2.74 2.74 0 0 1-1.583-.588m10.107-2.004a2.73 2.73 0 0 1-2.205 2.542c.416-2.949 1.297-5.437 1.953-6.987.145.31.233.652.252 1.014a33 33 0 0 1 0 3.431m3.324.833c-.105.205-.23.256-.327.278-.207.046-.818.04-2.13-.932q.008-.066.011-.132c.062-1.17.062-2.355 0-3.524q-.004-.067-.01-.133c1.31-.972 1.922-.978 2.129-.932.097.022.222.073.327.279.118.232.091.365.06.445-.09.236-.423.473-.934.666a.44.44 0 0 0 .008.826c.538.19.783.45.783.61 0 .161-.245.42-.783.612a.44.44 0 0 0-.008.825c.511.194.843.43.934.666.031.08.058.213-.06.446"/><path fill="#3BB77E" d="M8.798 12.29c1.951-.259 3.93-.259 5.88 0q.03.004.06.004a.44.44 0 0 0 .057-.875 23.2 23.2 0 0 0-6.113 0 .44.44 0 1 0 .116.871M15.172 15.683a.44.44 0 0 0-.493-.377c-1.951.259-3.93.259-5.88 0a.44.44 0 0 0-.117.87 23.2 23.2 0 0 0 6.112 0 .44.44 0 0 0 .378-.493M16.364 13.798a.44.44 0 0 0-.44-.44h-8.37a.44.44 0 0 0 0 .88h8.37a.44.44 0 0 0 .44-.44"/></g></g></g><defs><clipPath id="a"><path fill="#fff" d="M.438.207h30v30h-30z"/></clipPath><clipPath id="b"><path fill="#fff" d="M.438.207h30v30h-30z"/></clipPath><clipPath id="c"><path fill="#fff" d="M.438.207h30v30h-30z"/></clipPath></defs></svg>
